; generated by Slic3r 1.37.1-prusa3d on 2018-04-21 at 16:24:06

; 

; external perimeters extrusion width = 0.45mm
; perimeters extrusion width = 0.45mm
; infill extrusion width = 0.45mm
; solid infill extrusion width = 0.45mm
; top infill extrusion width = 0.40mm
; first layer extrusion width = 0.42mm

M107
M115 U3.0.9 ; tell printer latest fw version
M83  ; extruder relative mode
M104 S215 ; set extruder temp
M140 S55 ; set bed temp
M190 S55 ; wait for bed temp
M109 S215 ; wait for extruder temp
G28 W ; home all without mesh bed level
G80 ; mesh bed leveling
G1 Y-3.0 F1000.0 ; go outside pritn area
G1 X60.0 E9.0  F1000.0 ; intro line
G1 X100.0 E12.5  F1000.0 ; intro line
; Filament gcode

G21 ; set units to millimeters
G90 ; use absolute coordinates
M83 ; use relative distances for extrusion
G1 E-0.80000 F2100.00000
G1 Z0.200 F7200.000
G1 X66.319 Y47.570 F7200.000
G1 E0.80000 F2100.00000
M204 S1000
G1 F2100
G1 X67.083 Y47.057 E0.02884
G1 X67.984 Y46.873 E0.02884
G1 X182.004 Y46.873 E3.57502
G1 X182.902 Y47.051 E0.02872
G1 X183.670 Y47.558 E0.02884
G1 X184.185 Y48.315 E0.02872
G1 X184.377 Y49.215 E0.02884
G1 X184.377 Y160.765 E3.49759
G1 X184.193 Y161.666 E0.02884
G1 X183.681 Y162.430 E0.02884
G1 X182.910 Y162.946 E0.02907
G1 X182.000 Y163.127 E0.02911
G1 X67.985 Y163.127 E3.57487
G1 X67.084 Y162.943 E0.02884
G1 X66.320 Y162.431 E0.02884
G1 X65.804 Y161.660 E0.02907
G1 X65.623 Y160.750 E0.02911
G1 X65.623 Y49.235 E3.49648
G1 X65.807 Y48.334 E0.02884
G1 X66.285 Y47.619 E0.02696
G1 F5760
G1 X67.083 Y47.057 E-0.33788
G1 F5760
G1 X67.984 Y46.873 E-0.31856
G1 F5760
G1 X68.283 Y46.873 E-0.10356
G1 E-0.04000 F2100.00000
G1 X167.286 Y127.786 F7200.000
G1 E0.80000 F2100.00000
G1 F1680
G1 X180.714 Y127.786 E0.42104
G1 X180.714 Y154.714 E0.84432
G1 X167.286 Y154.714 E0.42104
G1 X167.286 Y127.846 E0.84244
G1 X167.663 Y128.163 F7200.000
G1 F1680
G1 X180.337 Y128.163 E0.39739
G1 X180.337 Y154.337 E0.82067
G1 X167.663 Y154.337 E0.39739
G1 X167.663 Y128.223 E0.81879
G1 X168.040 Y128.540 F7200.000
G1 F1260
G1 X179.960 Y128.540 E0.37374
G1 X179.960 Y153.960 E0.79703
G1 X168.040 Y153.960 E0.37374
G1 X168.040 Y128.600 E0.79514
G1 X167.982 Y128.144 F7200.000
G1 F5760
G1 X170.234 Y128.589 E-0.76000
G1 E-0.04000 F2100.00000
G1 X153.286 Y127.786 F7200.000
G1 E0.80000 F2100.00000
G1 F1680
G1 X166.714 Y127.786 E0.42104
G1 X166.714 Y154.714 E0.84432
G1 X153.286 Y154.714 E0.42104
G1 X153.286 Y127.846 E0.84244
G1 X153.663 Y128.163 F7200.000
G1 F1680
G1 X166.337 Y128.163 E0.39739
G1 X166.337 Y154.337 E0.82067
G1 X153.663 Y154.337 E0.39739
G1 X153.663 Y128.223 E0.81879
G1 X154.040 Y128.540 F7200.000
G1 F1260
G1 X165.960 Y128.540 E0.37374
G1 X165.960 Y153.960 E0.79703
G1 X154.040 Y153.960 E0.37374
G1 X154.040 Y128.600 E0.79514
G1 X153.982 Y128.144 F7200.000
G1 F5760
G1 X156.234 Y128.589 E-0.76000
G1 E-0.04000 F2100.00000
G1 X139.286 Y127.786 F7200.000
G1 E0.80000 F2100.00000
G1 F1680
G1 X152.714 Y127.786 E0.42104
G1 X152.714 Y154.714 E0.84432
G1 X139.286 Y154.714 E0.42104
G1 X139.286 Y127.846 E0.84244
G1 X139.663 Y128.163 F7200.000
G1 F1680
G1 X152.337 Y128.163 E0.39739
G1 X152.337 Y154.337 E0.82067
G1 X139.663 Y154.337 E0.39739
G1 X139.663 Y128.223 E0.81879
G1 X140.040 Y128.540 F7200.000
G1 F1260
G1 X151.960 Y128.540 E0.37374
G1 X151.960 Y153.960 E0.79703
G1 X140.040 Y153.960 E0.37374
G1 X140.040 Y128.600 E0.79514
G1 X139.982 Y128.144 F7200.000
G1 F5760
G1 X142.234 Y128.589 E-0.76000
G1 E-0.04000 F2100.00000
G1 X125.286 Y127.786 F7200.000
G1 E0.80000 F2100.00000
G1 F1680
G1 X138.714 Y127.786 E0.42104
G1 X138.714 Y154.714 E0.84432
G1 X125.286 Y154.714 E0.42104
G1 X125.286 Y127.846 E0.84244
G1 X125.663 Y128.163 F7200.000
G1 F1680
G1 X138.337 Y128.163 E0.39739
G1 X138.337 Y154.337 E0.82067
G1 X125.663 Y154.337 E0.39739
G1 X125.663 Y128.223 E0.81879
G1 X126.040 Y128.540 F7200.000
G1 F1260
G1 X137.960 Y128.540 E0.37374
G1 X137.960 Y153.960 E0.79703
G1 X126.040 Y153.960 E0.37374
G1 X126.040 Y128.600 E0.79514
G1 X125.982 Y128.144 F7200.000
G1 F5760
G1 X128.234 Y128.589 E-0.76000
G1 E-0.04000 F2100.00000
G1 X111.286 Y127.786 F7200.000
G1 E0.80000 F2100.00000
G1 F1680
G1 X124.714 Y127.786 E0.42104
G1 X124.714 Y154.714 E0.84432
G1 X111.286 Y154.714 E0.42104
G1 X111.286 Y127.846 E0.84244
G1 X111.663 Y128.163 F7200.000
G1 F1680
G1 X124.337 Y128.163 E0.39739
G1 X124.337 Y154.337 E0.82067
G1 X111.663 Y154.337 E0.39739
G1 X111.663 Y128.223 E0.81879
G1 X112.040 Y128.540 F7200.000
G1 F1260
G1 X123.960 Y128.540 E0.37374
G1 X123.960 Y153.960 E0.79703
G1 X112.040 Y153.960 E0.37374
G1 X112.040 Y128.600 E0.79514
G1 X111.982 Y128.144 F7200.000
G1 F5760
G1 X114.234 Y128.589 E-0.76000
G1 E-0.04000 F2100.00000
G1 X97.286 Y127.786 F7200.000
G1 E0.80000 F2100.00000
G1 F1680
G1 X110.714 Y127.786 E0.42104
G1 X110.714 Y154.714 E0.84432
G1 X97.286 Y154.714 E0.42104
G1 X97.286 Y127.846 E0.84244
G1 X97.663 Y128.163 F7200.000
G1 F1680
G1 X110.337 Y128.163 E0.39739
G1 X110.337 Y154.337 E0.82067
G1 X97.663 Y154.337 E0.39739
G1 X97.663 Y128.223 E0.81879
G1 X98.040 Y128.540 F7200.000
G1 F1260
G1 X109.960 Y128.540 E0.37374
G1 X109.960 Y153.960 E0.79703
G1 X98.040 Y153.960 E0.37374
G1 X98.040 Y128.600 E0.79514
G1 X97.982 Y128.144 F7200.000
G1 F5760
G1 X100.234 Y128.589 E-0.76000
G1 E-0.04000 F2100.00000
G1 X83.286 Y127.786 F7200.000
G1 E0.80000 F2100.00000
G1 F1680
G1 X96.714 Y127.786 E0.42104
G1 X96.714 Y154.714 E0.84432
G1 X83.286 Y154.714 E0.42104
G1 X83.286 Y127.846 E0.84244
G1 X83.663 Y128.163 F7200.000
G1 F1680
G1 X96.337 Y128.163 E0.39739
G1 X96.337 Y154.337 E0.82067
G1 X83.663 Y154.337 E0.39739
G1 X83.663 Y128.223 E0.81879
G1 X84.040 Y128.540 F7200.000
G1 F1260
G1 X95.960 Y128.540 E0.37374
G1 X95.960 Y153.960 E0.79703
G1 X84.040 Y153.960 E0.37374
G1 X84.040 Y128.600 E0.79514
G1 X83.982 Y128.144 F7200.000
G1 F5760
G1 X86.234 Y128.589 E-0.76000
G1 E-0.04000 F2100.00000
G1 X69.286 Y127.786 F7200.000
G1 E0.80000 F2100.00000
G1 F1680
G1 X82.714 Y127.786 E0.42104
G1 X82.714 Y154.714 E0.84432
G1 X69.286 Y154.714 E0.42104
G1 X69.286 Y127.846 E0.84244
G1 X69.663 Y128.163 F7200.000
G1 F1680
G1 X82.337 Y128.163 E0.39739
G1 X82.337 Y154.337 E0.82067
G1 X69.663 Y154.337 E0.39739
G1 X69.663 Y128.223 E0.81879
G1 X70.040 Y128.540 F7200.000
G1 F1260
G1 X81.960 Y128.540 E0.37374
G1 X81.960 Y153.960 E0.79703
G1 X70.040 Y153.960 E0.37374
G1 X70.040 Y128.600 E0.79514
G1 X69.982 Y128.144 F7200.000
G1 F5760
G1 X72.234 Y128.589 E-0.76000
G1 E-0.04000 F2100.00000
G1 X69.286 Y68.036 F7200.000
G1 E0.80000 F2100.00000
G1 F1680
G1 X82.714 Y68.036 E0.42104
G1 X82.714 Y123.714 E1.74575
G1 X69.286 Y123.714 E0.42104
G1 X69.286 Y68.096 E1.74387
G1 X69.663 Y68.413 F7200.000
G1 F1680
G1 X82.337 Y68.413 E0.39739
G1 X82.337 Y123.337 E1.72211
G1 X69.663 Y123.337 E0.39739
G1 X69.663 Y68.473 E1.72023
G1 X70.040 Y68.790 F7200.000
G1 F1260
G1 X81.960 Y68.790 E0.37374
G1 X81.960 Y122.960 E1.69846
G1 X70.040 Y122.960 E0.37374
G1 X70.040 Y68.850 E1.69658
G1 X70.011 Y68.391 F7200.000
G1 F5760
G1 X72.234 Y68.839 E-0.76000
G1 E-0.04000 F2100.00000
G1 X83.286 Y68.036 F7200.000
G1 E0.80000 F2100.00000
G1 F1680
G1 X96.714 Y68.036 E0.42104
G1 X96.714 Y123.714 E1.74575
G1 X83.286 Y123.714 E0.42104
G1 X83.286 Y68.096 E1.74387
G1 X83.663 Y68.413 F7200.000
G1 F1680
G1 X96.337 Y68.413 E0.39739
G1 X96.337 Y123.337 E1.72211
G1 X83.663 Y123.337 E0.39739
G1 X83.663 Y68.473 E1.72023
G1 X84.040 Y68.790 F7200.000
G1 F1260
G1 X95.960 Y68.790 E0.37374
G1 X95.960 Y122.960 E1.69846
G1 X84.040 Y122.960 E0.37374
G1 X84.040 Y68.850 E1.69658
G1 X84.011 Y68.391 F7200.000
G1 F5760
G1 X86.234 Y68.839 E-0.76000
G1 E-0.04000 F2100.00000
G1 X97.286 Y68.036 F7200.000
G1 E0.80000 F2100.00000
G1 F1680
G1 X110.714 Y68.036 E0.42104
G1 X110.714 Y123.714 E1.74575
G1 X97.286 Y123.714 E0.42104
G1 X97.286 Y68.096 E1.74387
G1 X97.663 Y68.413 F7200.000
G1 F1680
G1 X110.337 Y68.413 E0.39739
G1 X110.337 Y123.337 E1.72211
G1 X97.663 Y123.337 E0.39739
G1 X97.663 Y68.473 E1.72023
G1 X98.040 Y68.790 F7200.000
G1 F1260
G1 X109.960 Y68.790 E0.37374
G1 X109.960 Y122.960 E1.69846
G1 X98.040 Y122.960 E0.37374
G1 X98.040 Y68.850 E1.69658
G1 X98.011 Y68.391 F7200.000
G1 F5760
G1 X100.234 Y68.839 E-0.76000
G1 E-0.04000 F2100.00000
G1 X111.286 Y68.036 F7200.000
G1 E0.80000 F2100.00000
G1 F1680
G1 X124.714 Y68.036 E0.42104
G1 X124.714 Y123.714 E1.74575
G1 X111.286 Y123.714 E0.42104
G1 X111.286 Y68.096 E1.74387
G1 X111.663 Y68.413 F7200.000
G1 F1680
G1 X124.337 Y68.413 E0.39739
G1 X124.337 Y123.337 E1.72211
G1 X111.663 Y123.337 E0.39739
G1 X111.663 Y68.473 E1.72023
G1 X112.040 Y68.790 F7200.000
G1 F1260
G1 X123.960 Y68.790 E0.37374
G1 X123.960 Y122.960 E1.69846
G1 X112.040 Y122.960 E0.37374
G1 X112.040 Y68.850 E1.69658
G1 X112.011 Y68.391 F7200.000
G1 F5760
G1 X114.234 Y68.839 E-0.76000
G1 E-0.04000 F2100.00000
G1 X125.286 Y68.036 F7200.000
G1 E0.80000 F2100.00000
G1 F1680
G1 X138.714 Y68.036 E0.42104
G1 X138.714 Y123.714 E1.74575
G1 X125.286 Y123.714 E0.42104
G1 X125.286 Y68.096 E1.74387
G1 X125.663 Y68.413 F7200.000
G1 F1680
G1 X138.337 Y68.413 E0.39739
G1 X138.337 Y123.337 E1.72211
G1 X125.663 Y123.337 E0.39739
G1 X125.663 Y68.473 E1.72023
G1 X126.040 Y68.790 F7200.000
G1 F1260
G1 X137.960 Y68.790 E0.37374
G1 X137.960 Y122.960 E1.69846
G1 X126.040 Y122.960 E0.37374
G1 X126.040 Y68.850 E1.69658
G1 X126.011 Y68.391 F7200.000
G1 F5760
G1 X128.234 Y68.839 E-0.76000
G1 E-0.04000 F2100.00000
G1 X139.286 Y68.036 F7200.000
G1 E0.80000 F2100.00000
G1 F1680
G1 X152.714 Y68.036 E0.42104
G1 X152.714 Y123.714 E1.74575
G1 X139.286 Y123.714 E0.42104
G1 X139.286 Y68.096 E1.74387
G1 X139.663 Y68.413 F7200.000
G1 F1680
G1 X152.337 Y68.413 E0.39739
G1 X152.337 Y123.337 E1.72211
G1 X139.663 Y123.337 E0.39739
G1 X139.663 Y68.473 E1.72023
G1 X140.040 Y68.790 F7200.000
G1 F1260
G1 X151.960 Y68.790 E0.37374
G1 X151.960 Y122.960 E1.69846
G1 X140.040 Y122.960 E0.37374
G1 X140.040 Y68.850 E1.69658
G1 X140.011 Y68.391 F7200.000
G1 F5760
G1 X142.234 Y68.839 E-0.76000
G1 E-0.04000 F2100.00000
G1 X153.286 Y68.036 F7200.000
G1 E0.80000 F2100.00000
G1 F1680
G1 X166.714 Y68.036 E0.42104
G1 X166.714 Y123.714 E1.74575
G1 X153.286 Y123.714 E0.42104
G1 X153.286 Y68.096 E1.74387
G1 X153.663 Y68.413 F7200.000
G1 F1680
G1 X166.337 Y68.413 E0.39739
G1 X166.337 Y123.337 E1.72211
G1 X153.663 Y123.337 E0.39739
G1 X153.663 Y68.473 E1.72023
G1 X154.040 Y68.790 F7200.000
G1 F1260
G1 X165.960 Y68.790 E0.37374
G1 X165.960 Y122.960 E1.69846
G1 X154.040 Y122.960 E0.37374
G1 X154.040 Y68.850 E1.69658
G1 X154.011 Y68.391 F7200.000
G1 F5760
G1 X156.234 Y68.839 E-0.76000
G1 E-0.04000 F2100.00000
G1 X167.286 Y68.036 F7200.000
G1 E0.80000 F2100.00000
G1 F1680
G1 X180.714 Y68.036 E0.42104
G1 X180.714 Y123.714 E1.74575
G1 X167.286 Y123.714 E0.42104
G1 X167.286 Y68.096 E1.74387
G1 X167.663 Y68.413 F7200.000
G1 F1680
G1 X180.337 Y68.413 E0.39739
G1 X180.337 Y123.337 E1.72211
G1 X167.663 Y123.337 E0.39739
G1 X167.663 Y68.473 E1.72023
G1 X168.040 Y68.790 F7200.000
G1 F1260
G1 X179.960 Y68.790 E0.37374
G1 X179.960 Y122.960 E1.69846
G1 X168.040 Y122.960 E0.37374
G1 X168.040 Y68.850 E1.69658
G1 X168.011 Y68.391 F7200.000
G1 F5760
G1 X170.234 Y68.839 E-0.76000
G1 E-0.04000 F2100.00000
G1 X181.036 Y50.214 F7200.000
G1 E0.80000 F2100.00000
G1 F1680
G1 X181.036 Y159.786 E3.43554
G1 X68.964 Y159.786 E3.51393
G1 X68.964 Y50.214 E3.43554
G1 X180.976 Y50.214 E3.51205
G1 X181.413 Y49.837 F7200.000
G1 F1680
G1 X181.413 Y160.163 E3.45919
G1 X68.587 Y160.163 E3.53758
G1 X68.587 Y49.837 E3.45919
G1 X181.353 Y49.837 E3.53569
G1 X181.790 Y49.460 F7200.000
G1 F1260
G1 X181.790 Y160.540 E3.48284
G1 X68.210 Y160.540 E3.56122
G1 X68.210 Y49.460 E3.48284
G1 X181.730 Y49.460 E3.55934
G1 X181.685 Y49.846 F7200.000
G1 F5760
G1 X181.731 Y51.654 E-0.76000
G1 E-0.04000 F2100.00000
G1 X180.923 Y51.092 F7200.000
G1 E0.80000 F2100.00000
G1 F1680
G1 X180.327 Y50.497 E0.02650
G1 X179.792 Y50.497 E0.01684
G1 X180.753 Y51.458 E0.04276
G1 X180.753 Y51.993 E0.01684
G1 X179.257 Y50.497 E0.06658
G1 X178.722 Y50.497 E0.01684
G1 X180.753 Y52.528 E0.09040
G1 X180.753 Y53.063 E0.01684
G1 X178.187 Y50.497 E0.11421
G1 X177.651 Y50.497 E0.01684
G1 X180.753 Y53.599 E0.13803
G1 X180.753 Y54.134 E0.01684
G1 X177.116 Y50.497 E0.16185
G1 X176.581 Y50.497 E0.01684
G1 X180.753 Y54.669 E0.18566
G1 X180.753 Y55.204 E0.01684
G1 X176.046 Y50.497 E0.20948
G1 X175.511 Y50.497 E0.01684
G1 X180.753 Y55.739 E0.23330
G1 X180.753 Y56.275 E0.01684
G1 X174.975 Y50.497 E0.25711
G1 X174.440 Y50.497 E0.01684
G1 X180.753 Y56.810 E0.28093
G1 X180.753 Y57.345 E0.01684
G1 X173.905 Y50.497 E0.30475
G1 X173.370 Y50.497 E0.01684
G1 X180.753 Y57.880 E0.32856
G1 X180.753 Y58.415 E0.01684
G1 X172.835 Y50.497 E0.35238
G1 X172.299 Y50.497 E0.01684
G1 X180.753 Y58.951 E0.37620
G1 X180.753 Y59.486 E0.01684
G1 X171.764 Y50.497 E0.40001
G1 X171.229 Y50.497 E0.01684
G1 X180.753 Y60.021 E0.42383
G1 X180.753 Y60.556 E0.01684
G1 X170.694 Y50.497 E0.44765
G1 X170.159 Y50.497 E0.01684
G1 X180.753 Y61.091 E0.47146
G1 X180.753 Y61.627 E0.01684
G1 X169.623 Y50.497 E0.49528
G1 X169.088 Y50.497 E0.01684
G1 X180.753 Y62.162 E0.51910
G1 X180.753 Y62.697 E0.01684
G1 X168.553 Y50.497 E0.54291
G1 X168.018 Y50.497 E0.01684
G1 X180.753 Y63.232 E0.56673
G1 X180.753 Y63.767 E0.01684
G1 X167.483 Y50.497 E0.59055
G1 X166.948 Y50.497 E0.01684
G1 X180.753 Y64.302 E0.61436
G1 X180.753 Y64.838 E0.01684
G1 X166.412 Y50.497 E0.63818
G1 X165.877 Y50.497 E0.01684
G1 X180.753 Y65.373 E0.66200
G1 X180.753 Y65.908 E0.01684
G1 X165.342 Y50.497 E0.68581
G1 X164.807 Y50.497 E0.01684
G1 X180.753 Y66.443 E0.70963
G1 X180.753 Y66.978 E0.01684
G1 X164.272 Y50.497 E0.73345
G1 X163.736 Y50.497 E0.01684
G1 X180.753 Y67.514 E0.75726
G1 X180.753 Y67.753 E0.00753
G1 X180.457 Y67.753 E0.00931
G1 X163.201 Y50.497 E0.76792
G1 X162.666 Y50.497 E0.01684
G1 X179.922 Y67.753 E0.76792
G1 X179.387 Y67.753 E0.01684
G1 X162.131 Y50.497 E0.76792
G1 X161.596 Y50.497 E0.01684
G1 X178.852 Y67.753 E0.76792
G1 X178.317 Y67.753 E0.01684
G1 X161.060 Y50.497 E0.76792
G1 X160.525 Y50.497 E0.01684
G1 X177.781 Y67.753 E0.76792
G1 X177.246 Y67.753 E0.01684
G1 X159.990 Y50.497 E0.76792
G1 X159.455 Y50.497 E0.01684
G1 X176.711 Y67.753 E0.76792
G1 X176.176 Y67.753 E0.01684
G1 X158.920 Y50.497 E0.76792
G1 X158.384 Y50.497 E0.01684
G1 X175.641 Y67.753 E0.76792
G1 X175.105 Y67.753 E0.01684
G1 X157.849 Y50.497 E0.76792
G1 X157.314 Y50.497 E0.01684
G1 X174.570 Y67.753 E0.76792
G1 X174.035 Y67.753 E0.01684
G1 X156.779 Y50.497 E0.76792
G1 X156.244 Y50.497 E0.01684
G1 X173.500 Y67.753 E0.76792
G1 X172.965 Y67.753 E0.01684
G1 X155.709 Y50.497 E0.76792
G1 X155.173 Y50.497 E0.01684
G1 X172.429 Y67.753 E0.76792
G1 X171.894 Y67.753 E0.01684
G1 X154.638 Y50.497 E0.76792
G1 X154.103 Y50.497 E0.01684
G1 X171.359 Y67.753 E0.76792
G1 X170.824 Y67.753 E0.01684
G1 X153.568 Y50.497 E0.76792
G1 X153.033 Y50.497 E0.01684
G1 X170.289 Y67.753 E0.76792
G1 X169.753 Y67.753 E0.01684
G1 X152.497 Y50.497 E0.76792
G1 X151.962 Y50.497 E0.01684
G1 X169.218 Y67.753 E0.76792
G1 X168.683 Y67.753 E0.01684
G1 X151.427 Y50.497 E0.76792
G1 X150.892 Y50.497 E0.01684
G1 X168.148 Y67.753 E0.76792
G1 X167.613 Y67.753 E0.01684
G1 X150.357 Y50.497 E0.76792
G1 X149.821 Y50.497 E0.01684
G1 X166.889 Y67.565 E0.75953
G1 X166.620 Y67.565 E0.00847
G1 X166.620 Y67.753 E0.00593
G1 X166.542 Y67.753 E0.00244
G1 X149.286 Y50.497 E0.76792
G1 X148.751 Y50.497 E0.01684
G1 X166.007 Y67.753 E0.76792
G1 X165.472 Y67.753 E0.01684
G1 X148.216 Y50.497 E0.76792
G1 X147.681 Y50.497 E0.01684
G1 X164.937 Y67.753 E0.76792
G1 X164.402 Y67.753 E0.01684
G1 X147.145 Y50.497 E0.76792
G1 X146.610 Y50.497 E0.01684
G1 X163.866 Y67.753 E0.76792
G1 X163.331 Y67.753 E0.01684
G1 X146.075 Y50.497 E0.76792
G1 X145.540 Y50.497 E0.01684
G1 X162.796 Y67.753 E0.76792
G1 X162.261 Y67.753 E0.01684
G1 X145.005 Y50.497 E0.76792
G1 X144.469 Y50.497 E0.01684
G1 X161.726 Y67.753 E0.76792
G1 X161.190 Y67.753 E0.01684
G1 X143.934 Y50.497 E0.76792
G1 X143.399 Y50.497 E0.01684
G1 X160.655 Y67.753 E0.76792
G1 X160.120 Y67.753 E0.01684
G1 X142.864 Y50.497 E0.76792
G1 X142.329 Y50.497 E0.01684
G1 X159.585 Y67.753 E0.76792
G1 X159.050 Y67.753 E0.01684
