; generated by Slic3r 1.37.1-prusa3d on 2018-04-21 at 18:36:07

; 

; external perimeters extrusion width = 0.45mm
; perimeters extrusion width = 0.45mm
; infill extrusion width = 0.45mm
; solid infill extrusion width = 0.45mm
; top infill extrusion width = 0.40mm
; first layer extrusion width = 0.42mm

M107
M115 U3.0.9 ; tell printer latest fw version
M83  ; extruder relative mode
M104 S215 ; set extruder temp
M140 S55 ; set bed temp
M190 S55 ; wait for bed temp
M109 S215 ; wait for extruder temp
G28 W ; home all without mesh bed level
G80 ; mesh bed leveling
G1 Y-3.0 F1000.0 ; go outside pritn area
G1 X60.0 E9.0  F1000.0 ; intro line
G1 X100.0 E12.5  F1000.0 ; intro line
; Filament gcode

G21 ; set units to millimeters
G90 ; use absolute coordinates
M83 ; use relative distances for extrusion
G1 E-0.80000 F2100.00000
G1 Z0.200 F7200.000
G1 X85.320 Y18.802 F7200.000
G1 E0.80000 F2100.00000
M204 S1000
G1 F2100
G1 X85.675 Y18.227 E0.02119
G1 X86.177 Y17.775 E0.02119
G1 X86.786 Y17.483 E0.02119
G1 X87.453 Y17.373 E0.02119
G1 X162.504 Y17.373 E2.35316
G1 X163.402 Y17.551 E0.02872
G1 X164.170 Y18.058 E0.02884
G1 X164.687 Y18.819 E0.02884
G1 X164.877 Y19.718 E0.02884
G1 X164.877 Y190.254 E5.34702
G1 X164.680 Y191.198 E0.03024
G1 X164.325 Y191.773 E0.02119
G1 X163.820 Y192.227 E0.02130
G1 X163.210 Y192.519 E0.02119
G1 X162.539 Y192.627 E0.02130
G1 X87.492 Y192.627 E2.35304
G1 X86.552 Y192.430 E0.03013
G1 X85.971 Y192.070 E0.02142
G1 X85.517 Y191.560 E0.02142
G1 X85.226 Y190.942 E0.02142
G1 X85.123 Y190.266 E0.02142
G1 X85.123 Y19.746 E5.34654
G1 X85.308 Y18.861 E0.02836
G1 F5760
G1 X85.675 Y18.227 E-0.25368
G1 F5760
G1 X86.177 Y17.775 E-0.23403
G1 F5760
G1 X86.786 Y17.483 E-0.23403
G1 F5760
G1 X86.895 Y17.465 E-0.03826
G1 E-0.04000 F2100.00000
G1 X118.286 Y113.036 F7200.000
G1 E0.80000 F2100.00000
G1 F1680
G1 X131.714 Y113.036 E0.42104
G1 X131.714 Y141.214 E0.88351
G1 X118.286 Y141.214 E0.42104
G1 X118.286 Y113.096 E0.88163
G1 X118.663 Y113.413 F7200.000
G1 F1680
G1 X131.337 Y113.413 E0.39739
G1 X131.337 Y140.837 E0.85987
G1 X118.663 Y140.837 E0.39739
G1 X118.663 Y113.473 E0.85798
G1 X119.040 Y113.790 F7200.000
G1 F1260
G1 X130.960 Y113.790 E0.37374
G1 X130.960 Y140.460 E0.83622
G1 X119.040 Y140.460 E0.37374
G1 X119.040 Y113.850 E0.83434
G1 X118.984 Y113.394 F7200.000
G1 F5760
G1 X121.234 Y113.839 E-0.76000
G1 E-0.04000 F2100.00000
G1 X118.286 Y68.036 F7200.000
G1 E0.80000 F2100.00000
G1 F1680
G1 X131.714 Y68.036 E0.42104
G1 X131.714 Y96.964 E0.90703
G1 X118.286 Y96.964 E0.42104
G1 X118.286 Y68.096 E0.90515
G1 X118.663 Y68.413 F7200.000
G1 F1680
G1 X131.337 Y68.413 E0.39739
G1 X131.337 Y96.587 E0.88338
G1 X118.663 Y96.587 E0.39739
G1 X118.663 Y68.473 E0.88150
G1 X119.040 Y68.790 F7200.000
G1 F1260
G1 X130.960 Y68.790 E0.37374
G1 X130.960 Y96.210 E0.85973
G1 X119.040 Y96.210 E0.37374
G1 X119.040 Y68.850 E0.85785
G1 X118.985 Y68.394 F7200.000
G1 F5760
G1 X121.234 Y68.839 E-0.76000
G1 E-0.04000 F2100.00000
G1 X107.703 Y32.068 F7200.000
G1 E0.80000 F2100.00000
G1 F1680
G1 X107.806 Y32.400 E0.01088
G1 X107.833 Y32.749 E0.01099
G1 X107.784 Y33.094 E0.01093
G1 X107.660 Y33.424 E0.01106
G1 X107.461 Y33.725 E0.01129
G1 X107.190 Y33.980 E0.01168
G1 X106.870 Y34.161 E0.01154
G1 X106.531 Y34.263 E0.01110
G1 X106.183 Y34.288 E0.01092
G1 X105.840 Y34.238 E0.01086
G1 X105.512 Y34.113 E0.01101
G1 X105.213 Y33.915 E0.01126
G1 X104.999 Y33.688 E0.00977
G1 X103.841 Y32.128 E0.06091
G1 X102.656 Y33.699 E0.06170
G1 X102.441 Y33.924 E0.00975
G1 X102.142 Y34.118 E0.01119
G1 X101.814 Y34.240 E0.01096
G1 X101.471 Y34.287 E0.01087
G1 X101.122 Y34.259 E0.01097
G1 X100.781 Y34.152 E0.01121
G1 X100.586 Y34.037 E0.00710
G1 X100.450 Y34.124 E0.00505
G1 X100.113 Y34.246 E0.01123
G1 X99.804 Y34.282 E0.00976
G1 X94.603 Y34.282 E0.16310
G1 X94.294 Y34.246 E0.00976
G1 X93.957 Y34.124 E0.01123
G1 X93.662 Y33.936 E0.01097
G1 X93.417 Y33.690 E0.01089
G1 X93.228 Y33.395 E0.01096
G1 X93.107 Y33.059 E0.01122
G1 X93.064 Y32.694 E0.01151
G1 X93.107 Y32.329 E0.01151
G1 X93.228 Y31.992 E0.01123
G1 X93.417 Y31.697 E0.01098
G1 X93.662 Y31.452 E0.01089
G1 X93.957 Y31.263 E0.01097
G1 X94.294 Y31.142 E0.01123
G1 X94.603 Y31.106 E0.00975
G1 X95.616 Y31.106 E0.03176
G1 X95.616 Y26.206 E0.15363
G1 X95.652 Y25.897 E0.00974
G1 X95.773 Y25.560 E0.01123
G1 X95.962 Y25.265 E0.01098
G1 X96.207 Y25.020 E0.01089
G1 X96.502 Y24.832 E0.01097
G1 X96.839 Y24.710 E0.01123
G1 X97.204 Y24.667 E0.01152
G1 X97.569 Y24.710 E0.01151
G1 X97.906 Y24.831 E0.01123
G1 X98.201 Y25.020 E0.01098
G1 X98.446 Y25.265 E0.01089
G1 X98.635 Y25.560 E0.01098
G1 X98.756 Y25.897 E0.01123
G1 X98.792 Y26.206 E0.00974
G1 X98.792 Y31.106 E0.15363
G1 X99.804 Y31.106 E0.03173
G1 X100.113 Y31.142 E0.00975
G1 X100.496 Y31.293 E0.01293
G1 X101.866 Y29.472 E0.07145
G1 X100.149 Y27.170 E0.09008
G1 X99.993 Y26.901 E0.00972
G1 X99.889 Y26.561 E0.01116
G1 X99.861 Y26.212 E0.01098
G1 X99.910 Y25.866 E0.01095
G1 X100.034 Y25.536 E0.01105
G1 X100.233 Y25.236 E0.01128
G1 X100.501 Y24.984 E0.01153
G1 X100.817 Y24.801 E0.01146
G1 X101.157 Y24.696 E0.01115
G1 X101.509 Y24.669 E0.01106
G1 X101.857 Y24.720 E0.01104
G1 X102.187 Y24.848 E0.01110
G1 X102.484 Y25.048 E0.01123
G1 X102.694 Y25.274 E0.00968
G1 X103.856 Y26.833 E0.06095
G1 X105.036 Y25.264 E0.06158
G1 X105.251 Y25.039 E0.00975
G1 X105.549 Y24.842 E0.01120
G1 X105.879 Y24.717 E0.01106
G1 X106.227 Y24.669 E0.01105
G1 X106.581 Y24.700 E0.01113
G1 X106.925 Y24.812 E0.01134
G1 X107.233 Y25.000 E0.01132
G1 X107.382 Y25.142 E0.00646
G1 X107.500 Y25.023 E0.00528
G1 X107.795 Y24.833 E0.01100
G1 X108.133 Y24.710 E0.01128
G1 X108.500 Y24.667 E0.01156
G1 X108.866 Y24.710 E0.01157
G1 X109.205 Y24.834 E0.01131
G1 X109.500 Y25.026 E0.01104
G1 X109.744 Y25.274 E0.01090
G1 X109.929 Y25.570 E0.01096
G1 X110.047 Y25.905 E0.01114
G1 X110.083 Y26.211 E0.00966
G1 X110.083 Y29.101 E0.09062
G1 X110.222 Y29.154 E0.00468
G1 X110.486 Y29.189 E0.00835
G1 X110.522 Y29.187 E0.00113
G1 X110.525 Y29.138 E0.00153
G1 X110.525 Y26.210 E0.09181
G1 X110.561 Y25.902 E0.00974
G1 X110.682 Y25.565 E0.01122
G1 X110.869 Y25.269 E0.01098
G1 X111.114 Y25.023 E0.01089
G1 X111.409 Y24.833 E0.01100
G1 X111.747 Y24.710 E0.01128
G1 X112.113 Y24.667 E0.01156
G1 X112.479 Y24.710 E0.01156
G1 X112.817 Y24.833 E0.01128
G1 X113.112 Y25.023 E0.01100
G1 X113.357 Y25.269 E0.01089
G1 X113.545 Y25.565 E0.01098
G1 X113.666 Y25.902 E0.01122
G1 X113.702 Y26.210 E0.00974
G1 X113.702 Y29.209 E0.09402
G1 X113.640 Y29.922 E0.02244
G1 X113.432 Y30.622 E0.02289
G1 X113.069 Y31.244 E0.02260
G1 X112.559 Y31.750 E0.02253
G1 X111.934 Y32.108 E0.02257
G1 X111.234 Y32.312 E0.02285
G1 X110.482 Y32.376 E0.02366
G1 X109.859 Y32.326 E0.01961
G1 X109.309 Y32.194 E0.01772
G1 X109.152 Y32.139 E0.00523
G1 X109.002 Y32.210 E0.00521
G1 X108.683 Y32.284 E0.01024
G1 X108.169 Y32.263 E0.01614
G1 X107.754 Y32.100 E0.01398
G1 F5760
G1 X107.806 Y32.400 E-0.10518
G1 F5760
G1 X107.833 Y32.749 E-0.12137
G1 F5760
G1 X107.784 Y33.094 E-0.12079
G1 F5760
G1 X107.660 Y33.424 E-0.12217
G1 F5760
G1 X107.461 Y33.725 E-0.12475
G1 F5760
G1 X107.190 Y33.980 E-0.12897
G1 F5760
G1 X107.098 Y34.032 E-0.03678
G1 E-0.04000 F2100.00000
G1 X109.134 Y31.729 F7200.000
G1 E0.80000 F2100.00000
G1 F1680
G1 X108.877 Y31.852 E0.00894
G1 X108.648 Y31.905 E0.00736
G1 X108.243 Y31.888 E0.01272
G1 X107.965 Y31.788 E0.00926
G1 X107.740 Y31.644 E0.00837
G1 X107.553 Y31.457 E0.00830
G1 X107.409 Y31.232 E0.00837
G1 X107.317 Y30.975 E0.00854
G1 X107.288 Y30.732 E0.00768
G1 X107.288 Y26.908 E0.11990
G1 X105.357 Y29.482 E0.10091
G1 X107.230 Y31.999 E0.09838
G1 X107.353 Y32.211 E0.00767
G1 X107.433 Y32.471 E0.00853
G1 X107.454 Y32.737 E0.00838
G1 X107.417 Y33.000 E0.00834
G1 X107.322 Y33.252 E0.00842
G1 X107.171 Y33.480 E0.00859
G1 X106.965 Y33.674 E0.00888
G1 X106.721 Y33.812 E0.00878
G1 X106.462 Y33.890 E0.00847
G1 X106.197 Y33.909 E0.00834
G1 X105.935 Y33.870 E0.00829
G1 X105.685 Y33.776 E0.00839
G1 X105.458 Y33.625 E0.00857
G1 X105.289 Y33.445 E0.00771
G1 X103.843 Y31.499 E0.07602
G1 X102.369 Y33.454 E0.07680
G1 X102.199 Y33.631 E0.00769
G1 X101.971 Y33.779 E0.00851
G1 X101.722 Y33.872 E0.00835
G1 X101.460 Y33.908 E0.00829
G1 X101.194 Y33.887 E0.00836
G1 X100.935 Y33.806 E0.00852
G1 X100.697 Y33.665 E0.00868
G1 X100.587 Y33.561 E0.00475
G1 X100.507 Y33.640 E0.00352
G1 X100.282 Y33.784 E0.00837
G1 X100.026 Y33.876 E0.00855
G1 X99.782 Y33.905 E0.00770
G1 X94.625 Y33.905 E0.16171
G1 X94.381 Y33.876 E0.00770
G1 X94.125 Y33.784 E0.00855
G1 X93.900 Y33.640 E0.00837
G1 X93.712 Y33.452 E0.00831
G1 X93.569 Y33.228 E0.00836
G1 X93.476 Y32.972 E0.00854
G1 X93.444 Y32.694 E0.00876
G1 X93.476 Y32.416 E0.00877
G1 X93.569 Y32.160 E0.00855
G1 X93.713 Y31.935 E0.00837
G1 X93.900 Y31.748 E0.00831
G1 X94.125 Y31.604 E0.00837
G1 X94.381 Y31.511 E0.00855
G1 X94.625 Y31.483 E0.00769
G1 X95.993 Y31.483 E0.04289
G1 X95.993 Y26.228 E0.16477
G1 X96.021 Y25.984 E0.00769
G1 X96.114 Y25.728 E0.00855
G1 X96.258 Y25.503 E0.00837
G1 X96.445 Y25.316 E0.00831
G1 X96.670 Y25.172 E0.00837
G1 X96.926 Y25.079 E0.00855
G1 X97.204 Y25.047 E0.00877
G1 X97.482 Y25.079 E0.00876
G1 X97.738 Y25.172 E0.00855
G1 X97.963 Y25.316 E0.00837
G1 X98.150 Y25.503 E0.00831
G1 X98.294 Y25.728 E0.00837
G1 X98.387 Y25.984 E0.00855
G1 X98.415 Y26.228 E0.00769
G1 X98.415 Y31.483 E0.16477
G1 X99.782 Y31.483 E0.04286
G1 X100.026 Y31.511 E0.00769
G1 X100.282 Y31.604 E0.00855
G1 X100.507 Y31.748 E0.00837
G1 X100.575 Y31.816 E0.00302
G1 X102.338 Y29.473 E0.09190
G1 X100.464 Y26.962 E0.09825
G1 X100.341 Y26.749 E0.00770
G1 X100.261 Y26.490 E0.00851
G1 X100.240 Y26.223 E0.00838
G1 X100.278 Y25.960 E0.00835
G1 X100.372 Y25.709 E0.00841
G1 X100.523 Y25.481 E0.00858
G1 X100.727 Y25.289 E0.00879
G1 X100.970 Y25.149 E0.00876
G1 X101.228 Y25.069 E0.00850
G1 X101.496 Y25.048 E0.00841
G1 X101.760 Y25.087 E0.00838
G1 X102.011 Y25.184 E0.00843
G1 X102.237 Y25.337 E0.00855
G1 X102.405 Y25.516 E0.00769
G1 X103.854 Y27.462 E0.07609
G1 X105.324 Y25.508 E0.07668
G1 X105.494 Y25.330 E0.00772
G1 X105.721 Y25.180 E0.00853
G1 X105.972 Y25.085 E0.00841
G1 X106.237 Y25.048 E0.00839
G1 X106.505 Y25.071 E0.00844
G1 X106.766 Y25.156 E0.00860
G1 X107.001 Y25.300 E0.00865
G1 X107.200 Y25.491 E0.00863
G1 X107.349 Y25.717 E0.00850
G1 X107.382 Y25.805 E0.00294
G1 X107.409 Y25.732 E0.00244
G1 X107.552 Y25.506 E0.00839
G1 X107.739 Y25.318 E0.00831
G1 X107.964 Y25.173 E0.00839
G1 X108.221 Y25.080 E0.00858
G1 X108.500 Y25.047 E0.00880
G1 X108.778 Y25.080 E0.00880
G1 X109.035 Y25.174 E0.00859
G1 X109.260 Y25.319 E0.00840
G1 X109.446 Y25.509 E0.00831
G1 X109.588 Y25.735 E0.00836
G1 X109.678 Y25.990 E0.00850
G1 X109.705 Y26.232 E0.00765
G1 X109.705 Y29.333 E0.09722
G1 X109.977 Y29.470 E0.00953
G1 X110.125 Y29.519 E0.00491
G1 X110.484 Y29.567 E0.01134
G1 X110.808 Y29.529 E0.01024
G1 X110.864 Y29.476 E0.00239
G1 X110.889 Y29.366 E0.00355
G1 X110.902 Y26.232 E0.09827
G1 X110.931 Y25.988 E0.00770
G1 X111.023 Y25.732 E0.00855
G1 X111.166 Y25.506 E0.00838
G1 X111.353 Y25.318 E0.00832
G1 X111.578 Y25.173 E0.00839
G1 X111.835 Y25.080 E0.00858
G1 X112.113 Y25.047 E0.00879
G1 X112.392 Y25.080 E0.00879
G1 X112.649 Y25.173 E0.00858
G1 X112.874 Y25.318 E0.00839
G1 X113.061 Y25.506 E0.00832
G1 X113.204 Y25.732 E0.00838
G1 X113.296 Y25.988 E0.00855
G1 X113.324 Y26.232 E0.00770
G1 X113.324 Y29.192 E0.09282
G1 X113.267 Y29.851 E0.02073
G1 X113.083 Y30.471 E0.02027
G1 X112.768 Y31.012 E0.01962
G1 X112.328 Y31.448 E0.01942
G1 X111.785 Y31.759 E0.01962
G1 X111.165 Y31.940 E0.02027
G1 X110.482 Y31.998 E0.02149
G1 X109.918 Y31.952 E0.01772
G1 X109.416 Y31.832 E0.01619
G1 X109.190 Y31.752 E0.00753
G1 F5760
G1 X108.877 Y31.852 E-0.11378
G1 F5760
G1 X108.648 Y31.905 E-0.08130
G1 F5760
G1 X108.243 Y31.888 E-0.14052
G1 F5760
G1 X107.965 Y31.788 E-0.10229
G1 F5760
G1 X107.740 Y31.644 E-0.09244
G1 F5760
G1 X107.553 Y31.457 E-0.09173
G1 F5760
G1 X107.409 Y31.232 E-0.09247
G1 F5760
G1 X107.365 Y31.108 E-0.04547
G1 E-0.04000 F2100.00000
G1 X106.881 Y33.235 F7200.000
G1 E0.80000 F2100.00000
G1 F840
G1 X106.740 Y33.368 E0.00608
G1 X106.572 Y33.463 E0.00603
G1 X106.394 Y33.516 E0.00584
G1 X106.211 Y33.529 E0.00575
G1 X106.030 Y33.503 E0.00572
G1 X105.859 Y33.438 E0.00576
G1 X105.703 Y33.335 E0.00587
G1 X105.579 Y33.203 E0.00566
G1 X103.846 Y30.869 E0.09114
G1 X102.081 Y33.209 E0.09189
G1 X101.957 Y33.339 E0.00563
G1 X101.801 Y33.441 E0.00584
G1 X101.629 Y33.504 E0.00574
G1 X101.449 Y33.529 E0.00570
G1 X101.267 Y33.514 E0.00574
G1 X101.089 Y33.459 E0.00584
G1 X100.925 Y33.362 E0.00598
G1 X100.786 Y33.230 E0.00602
G1 X100.682 Y33.074 E0.00587
G1 X100.618 Y32.902 E0.00576
G1 X100.592 Y32.721 E0.00572
G1 X100.606 Y32.538 E0.00575
G1 X100.662 Y32.360 E0.00585
G1 X100.753 Y32.206 E0.00561
G1 X102.809 Y29.474 E0.10719
G1 X100.779 Y26.754 E0.10642
G1 X100.689 Y26.597 E0.00567
G1 X100.634 Y26.419 E0.00587
G1 X100.619 Y26.235 E0.00577
G1 X100.645 Y26.054 E0.00574
G1 X100.710 Y25.882 E0.00577
G1 X100.814 Y25.725 E0.00588
G1 X100.954 Y25.593 E0.00604
G1 X101.122 Y25.497 E0.00607
G1 X101.300 Y25.441 E0.00585
G1 X101.483 Y25.427 E0.00576
G1 X101.664 Y25.454 E0.00573
G1 X101.835 Y25.520 E0.00577
G1 X101.990 Y25.625 E0.00588
G1 X102.115 Y25.758 E0.00570
G1 X103.853 Y28.092 E0.09123
G1 X105.613 Y25.752 E0.09179
G1 X105.738 Y25.621 E0.00569
G1 X105.894 Y25.517 E0.00587
G1 X106.066 Y25.453 E0.00576
G1 X106.247 Y25.427 E0.00573
G1 X106.430 Y25.443 E0.00576
G1 X106.607 Y25.501 E0.00586
G1 X106.770 Y25.601 E0.00598
G1 X106.908 Y25.733 E0.00602
G1 X107.011 Y25.890 E0.00586
G1 X107.076 Y26.061 E0.00576
G1 X107.102 Y26.242 E0.00571
G1 X107.087 Y26.424 E0.00573
G1 X107.032 Y26.601 E0.00583
G1 X106.941 Y26.755 E0.00560
G1 X104.885 Y29.481 E0.10704
G1 X106.915 Y32.207 E0.10656
G1 X107.005 Y32.363 E0.00565
G1 X107.060 Y32.542 E0.00587
G1 X107.075 Y32.725 E0.00577
G1 X107.049 Y32.907 E0.00574
G1 X106.984 Y33.079 E0.00578
G1 X106.914 Y33.185 E0.00400
G1 X106.946 Y33.418 F7200.000
G1 F5760
G1 X106.740 Y33.368 E-0.08751
G1 F5760
G1 X106.572 Y33.463 E-0.06661
G1 F5760
G1 X106.394 Y33.516 E-0.06446
G1 F5760
G1 X106.211 Y33.529 E-0.06351
G1 F5760
G1 X106.030 Y33.503 E-0.06317
G1 F5760
G1 X105.859 Y33.438 E-0.06368
G1 F5760
G1 X105.703 Y33.335 E-0.06485
G1 F5760
G1 X105.579 Y33.203 E-0.06255
G1 F5760
G1 X105.194 Y32.685 E-0.22365
G1 E-0.04000 F2100.00000
G1 X100.583 Y32.694 F7200.000
G1 E0.80000 F2100.00000
G1 F840
G1 X100.561 Y32.884 E0.00601
G1 X100.498 Y33.060 E0.00586
G1 X100.399 Y33.215 E0.00576
G1 X100.270 Y33.344 E0.00573
G1 X100.115 Y33.443 E0.00576
G1 X99.939 Y33.507 E0.00586
G1 X99.760 Y33.528 E0.00564
G1 X94.647 Y33.528 E0.16033
G1 X94.468 Y33.507 E0.00564
G1 X94.292 Y33.443 E0.00586
G1 X94.137 Y33.344 E0.00576
G1 X94.008 Y33.215 E0.00573
G1 X93.909 Y33.060 E0.00576
G1 X93.846 Y32.884 E0.00586
G1 X93.824 Y32.694 E0.00601
G1 X93.846 Y32.503 E0.00602
G1 X93.909 Y32.327 E0.00586
G1 X94.008 Y32.172 E0.00576
G1 X94.137 Y32.043 E0.00573
G1 X94.292 Y31.944 E0.00576
G1 X94.468 Y31.881 E0.00586
G1 X94.647 Y31.860 E0.00564
G1 X96.370 Y31.860 E0.05403
G1 X96.370 Y26.250 E0.17590
G1 X96.391 Y26.071 E0.00563
G1 X96.454 Y25.895 E0.00586
G1 X96.553 Y25.740 E0.00576
G1 X96.682 Y25.611 E0.00573
G1 X96.837 Y25.512 E0.00576
G1 X97.013 Y25.449 E0.00586
G1 X97.204 Y25.427 E0.00602
G1 X97.395 Y25.449 E0.00602
G1 X97.571 Y25.512 E0.00586
G1 X97.726 Y25.611 E0.00576
G1 X97.855 Y25.740 E0.00573
G1 X97.954 Y25.895 E0.00576
G1 X98.017 Y26.071 E0.00586
G1 X98.038 Y26.250 E0.00563
G1 X98.038 Y31.860 E0.17590
G1 X99.760 Y31.860 E0.05400
G1 X99.939 Y31.881 E0.00564
G1 X100.115 Y31.944 E0.00586
G1 X100.270 Y32.043 E0.00576
G1 X100.399 Y32.172 E0.00573
G1 X100.498 Y32.327 E0.00576
G1 X100.561 Y32.503 E0.00586
G1 X100.576 Y32.634 E0.00414
G1 X100.749 Y32.790 F7200.000
G1 F5760
G1 X100.561 Y32.884 E-0.08675
G1 F5760
G1 X100.498 Y33.060 E-0.06469
G1 F5760
G1 X100.399 Y33.215 E-0.06365
G1 F5760
G1 X100.270 Y33.344 E-0.06334
G1 F5760
G1 X100.115 Y33.443 E-0.06366
G1 F5760
G1 X99.939 Y33.507 E-0.06476
G1 F5760
G1 X99.760 Y33.528 E-0.06229
G1 F5760
G1 X98.921 Y33.528 E-0.29085
G1 E-0.04000 F2100.00000
G1 X108.133 Y31.447 F7200.000
G1 E0.80000 F2100.00000
G1 F840
